%
O1234
(T1 D=10. CR=0. - ZMIN=-36. - FLAT END MILL)
N10 G90 G94 G17 G49 G40 G80
N15 G21
N20 G28 G91 Z0.
N25 G90

(2D CONTOUR1)
N30 T1 M06
N35 S5000 M03
N40 G54
N45 M08
N50 G00 X-53. Y-75.
N55 G43 Z15. H01
N60 G00 Z5.
N65 G01 Z2. F1333.
N70 Z-30.
N75 G19 G03 Y-69. Z-36. J6. F4000.
N80 G01 Y-61.
N85 G17 G03 X-61. Y-53. I-8.
N90 G02 X-66. Y-48. J5.
N95 G01 Y48.
N100 G02 X-61. Y53. I5.
N105 G01 X61.
N110 G02 X66. Y48. J-5.
N115 G01 Y-48.
N120 G02 X61. Y-53. I-5.
N125 G01 X-61.
N130 G03 X-69. Y-61. J-8.
N135 G01 Y-69.
N140 G19 G02 Y-75. Z-30. K6.
N145 G00 Z15.
N150 G17

N155 M09
N160 G28 G91 Z0.
N165 G90
N170 G49
N175 G28 G91 X0. Y0.
N180 G90
N185 M30
%
