(1234)
(T1  D=10. CR=0. - ZMIN=-36. - FLAT END MILL)
G90 G94 G91.1 G40 G49 G17
G21
G28 G91 Z0.
G90

(2D CONTOUR1)
M5
T1 M6
S5000 M3
G54
M8
G0 X-53. Y-75.
G43 Z15. H1
Z5.
G1 Z2. F1333.
Z-30.
G19 G3 Y-69. Z-36. J6. K0. F4000.
G1 Y-61.
G17 G3 X-61. Y-53. I-8. J0.
G2 X-66. Y-48. I0. J5.
G1 Y48.
G2 X-61. Y53. I5. J0.
G1 X61.
G2 X66. Y48. I0. J-5.
G1 Y-48.
G2 X61. Y-53. I-5. J0.
G1 X-61.
G3 X-69. Y-61. I0. J-8.
G1 Y-69.
G19 G2 Y-75. Z-30. J0. K6.
G0 Z15.
G17

M9
G28 G91 Z0.
G90
G28 G91 X0. Y0.
G90
M30
